content/images/project/kong-agent.svg

<svg width="36" height="36" viewBox="0 0 36 36" fill="none" xmlns="http://www.w3.org/2000/svg">
<path d="M0 4C0 1.79086 1.79086 0 4 0H32C34.2091 0 36 1.79086 36 4V32C36 34.2091 34.2091 36 32 36H4C1.79086 36 0 34.2091 0 32V4Z" fill="#0B2B40"/>
<path d="M15.2438 8.6913C15.657 8.5981 16.0846 8.53966 16.5132 8.51669C20.8123 8.28626 24.4818 11.6444 24.7057 16.014C24.7823 17.5095 24.4285 18.9933 23.716 20.2832C26.7505 19.1878 28.8051 16.1957 28.63 12.7803C28.417 8.62241 24.9184 5.42069 20.8277 5.63995C18.591 5.75983 16.5468 6.9087 15.2438 8.6913Z" fill="white"/>
</svg>

<svg xmlns="http://www.w3.org/2000/svg" width="36" height="36" fill="none" viewBox="0 0 36 36"><path fill="#0B2B40" d="M0 4a4 4 0 0 1 4-4h28a4 4 0 0 1 4 4v28a4 4 0 0 1-4 4H4a4 4 0 0 1-4-4V4Z"/><path fill="#fff" d="M15.244 8.691a7.65 7.65 0 0 1 1.27-.174c4.298-.23 7.968 3.127 8.192 7.497a8.006 8.006 0 0 1-.99 4.27c3.034-1.096 5.09-4.088 4.914-7.504-.213-4.158-3.712-7.36-7.802-7.14-2.237.12-4.281 1.269-5.584 3.051Z"/></svg>
